albertroad.htmlalbertroad.htmlalbertroad.htmlalbertroad.htmlalbertroad.htmlalbertroad.htmlalbertroad.htmlalbertroad.htmlalbertroad.htmlDougie MacDonald
albertroad.htmlalbertroad.html<PRE>T:Broadcove Bride
T:Broadcove Bride
M:C|
L:1/8
C:Dougie MacDonald
R:reel
N:Bookings, Mechanicals etc.
N:..... Dougie MacDonald dougie@cranfordpub.com
N:More tunes and information http://www.cranfordpub.com/dougie
D:A Miner, Dougie MacDonald, 1998
Z:This abc transcription is for personal use only
Z:provided this notice remains attached.
Z:Used by permission of the composers.
Z:Paul Stewart Cranford psc@cranfordpub.com
K:EMin
c|:BEGB B~c3|BEGB ADFA|BEGB c2 ec|1Begf e2 ec:|2Begf e2 EF|
!:GEBE AFDc|BGEB cGEB|cGEc BGEG|AFDF GEFD|
!GEBE AFDc|BGEB cGEG|c/2c/2c dc BAGB|1AFDF ~E3F:|2AFDF ~E3c||

%  ABC2Win Version 2.1 8/11/2001
albertroad.htmlalbertroad.htmlalbertroad.htmlalbertroad.htmlalbertroad.htmlalbertroad.htmlalbertroad.html